brandFactory_export/3.Masa/Lapiz Boligrafo _3Masa.svg

<?xml version="1.0" encoding="UTF-8"?>
<svg width="24px" height="24px" viewBox="0 0 24 24" version="1.1" xmlns="http://www.w3.org/2000/svg" xmlns:xlink="http://www.w3.org/1999/xlink">
    <title>3.Masa/Lapiz Boligrafo _3Masa</title>
    <g id="Symbols" stroke="none" stroke-width="1" fill="none" fill-rule="evenodd">
        <g id="3.Masa/Lapiz-Boligrafo-_3Masa" fill="#5CB615" fill-rule="nonzero">
            <path d="M7.97310924,20.5815126 L5.97647059,18.6084034 L17.1831933,7.52268908 L19.1495798,9.46890756 L7.97310924,20.5815126 Z M3.57983193,21.6840336 L1.93277311,20.0739496 L2.39663866,17.1058824 L6.45714286,21.1226891 L3.57983193,21.6840336 Z M14.1277311,4.50084034 L16.1512605,6.50420168 L4.94789916,17.589916 L2.92436975,15.589916 L14.1277311,4.50084034 L14.1277311,4.50084034 Z M22.1579832,1.79159664 C22.0672269,1.69747899 21.9563025,1.58655462 21.8588235,1.49243697 C20.2151261,-0.11092437 17.5327731,-0.91092437 14.9478992,1.64705882 L1.37478992,15.0756303 C1.31092437,15.1394958 1.26386555,15.2134454 1.22689076,15.2941176 C1.21680672,15.3210084 1.21008403,15.3478992 1.2,15.3747899 C1.18991597,15.4084034 1.17310924,15.4386555 1.16638655,15.4756303 L0.0369747899,22.789916 C4.02455846e-16,23.0218487 0.0806722689,23.2537815 0.248739496,23.4184874 C0.386554622,23.5495798 0.568067227,23.6201681 0.756302521,23.6201681 C0.8,23.6201681 0.843697479,23.6168067 0.890756303,23.6067227 L7.92941176,22.3159664 C7.94285714,22.3159664 7.95630252,22.3226891 7.9697479,22.3226891 C8.10084034,22.3226891 8.22521008,22.2756303 8.3394958,22.2084034 C8.34957983,22.205042 8.35630252,22.1983193 8.36638655,22.1915966 C8.40672269,22.1647059 8.45042017,22.1478992 8.48739496,22.1109244 C8.49411765,22.1042017 8.49411765,22.097479 8.50084034,22.0941176 C8.50756303,22.087395 8.51764706,22.0840336 8.52436975,22.0773109 L22.0134454,8.66554622 C24.5714286,6.14117647 23.7647059,3.46218487 22.1579832,1.79159664 Z" id="Lapiz-Boligrafo-_3Masa"></path>
        </g>
    </g>
</svg>

<svg width="24" height="24" viewBox="0 0 24 24" xmlns="http://www.w3.org/2000/svg"><path d="M7.973 20.582l-1.997-1.974L17.183 7.523l1.967 1.946L7.973 20.582zM3.58 21.684l-1.647-1.61.464-2.968 4.06 4.017-2.877.561zM14.128 4.501l2.023 2.003L4.948 17.59l-2.024-2L14.128 4.5zm8.03-2.71c-.09-.094-.202-.204-.3-.299-1.643-1.603-4.325-2.403-6.91.155L1.375 15.076a.738.738 0 00-.148.218c-.01.027-.017.054-.027.08-.01.034-.027.065-.034.102L.037 22.79a.72.72 0 00.854.817l7.038-1.291c.014 0 .027.007.04.007a.734.734 0 00.37-.115c.01-.003.017-.01.027-.016.04-.027.084-.044.121-.081.007-.007.007-.014.014-.017.007-.007.017-.01.023-.017l13.49-13.411c2.557-2.525 1.75-5.204.144-6.874z" fill="#5CB615" fill-rule="nonzero"/></svg>
